src/images/crypto-icon-svg/req.svg

<svg xmlns="http://www.w3.org/2000/svg" width="32" height="32" viewBox="0 0 32 32">
  <g fill="none">
    <circle cx="16" cy="16" r="16" fill="#6CFCCD"/>
    <path fill="#FFF" d="M10,6 L16.6071261,6 C17.5091483,6.00739996 18.1810767,6.05739971 18.6229113,6.14999925 C20.0991146,6.41559792 21.436038,7.32669337 22.2119674,8.58558707 C23.1296238,10.0433798 23.2497349,11.9444703 22.5518062,13.5111624 C21.9196429,14.9533552 20.597504,16.0822496 19.0521706,16.4911475 C18.070992,16.7689462 17.0411776,16.6655467 16.0341006,16.6844466 C17.1844113,18.5533261 18.9061046,21.3592454 21.1991807,25.1022045 L19.76937,26 C16.7741395,21.1206911 14.5290422,17.460676 13.0340779,15.0199549 C14.6270275,15.0121549 16.219977,15.0321548 17.811703,15.009955 C19.649361,14.9610552 21.2558714,13.3677632 21.294413,11.5655722 C21.414626,10.00888 20.3848116,8.45668772 18.8789374,7.94439028 C18.4627973,7.78512441 17.8083383,7.71142478 16.9155606,7.72329138 L10,7.72219139 L10,6 Z"/>
  </g>
</svg>

<svg xmlns="http://www.w3.org/2000/svg" width="32" height="32"><g fill="none"><circle cx="16" cy="16" r="16" fill="#6CFCCD"/><path fill="#FFF" d="M10 6h6.607c.902.007 1.574.057 2.016.15a5.389 5.389 0 0 1 3.589 2.436c.918 1.457 1.038 3.358.34 4.925-.632 1.442-1.954 2.571-3.5 2.98-.981.278-2.01.175-3.018.193a5181.37 5181.37 0 0 1 5.165 8.418L19.77 26c-2.995-4.88-5.24-8.54-6.735-10.98 1.593-.008 3.186.012 4.778-.01 1.837-.049 3.444-1.642 3.482-3.444.12-1.557-.91-3.11-2.415-3.622-.416-.159-1.07-.233-1.963-.22L10 7.721V6z"/></g></svg>
